X:1
T:[ID 2-72a]
T:[ID 2-72a]
T:Bezeichnung standardisiert: Menuett Men\"uet In dieser Quelle auch als: Menuetto
T:Urheber unbekannt Datum in der hier transkribierten schriftlichen Quelle: 1767
C:Urheber unbekannt
C:Datum in der hier transkribierten schriftlichen Quelle: 1767
L:1/8
M:3/4
K:G
V:1 treble 
V:1
 G2 G2 G2 | b2 b2 b2 | bagfed |{d} c4 B2 | D2 D2 D2 | c2 c2 c2 | Bcdefg |{B} A6 :: B2 c2 d2 | %9
 e2 edcB | A2 B2 c2 | d2 dcBA | (3BAG G4 | gf g4 | gdBGAF |{A} G6 :| %16

